src/icons/envoy.svg

<?xml version="1.0" encoding="UTF-8"?>
<svg xmlns="http://www.w3.org/2000/svg" xmlns:xlink="http://www.w3.org/1999/xlink" width="44" height="32" viewBox="0 0 44 32" version="1.1">
<g id="surface1">
<path style=" stroke:none;fill-rule:nonzero;fill:rgb(70.19608%,10.196079%,67.058825%);fill-opacity:1;" d="M 13.398438 19.613281 L 13.339844 17.042969 L 10.640625 15.363281 L 10.695312 17.933594 Z M 17.234375 26.039062 L 17.175781 23.523438 L 14.816406 22.050781 C 14.78125 22.03125 14.746094 22.007812 14.71875 21.976562 L 14.777344 24.507812 Z M 8.789062 29.421875 L 2.609375 25.585938 L 2.457031 19.160156 L 5.480469 17.855469 L 5.425781 15.285156 L 0.585938 17.363281 C 0.207031 17.535156 -0.0195312 17.875 0 18.273438 L 0.191406 25.980469 C 0.191406 26.378906 0.4375 26.773438 0.8125 27 L 8.21875 31.59375 C 8.558594 31.800781 8.976562 31.859375 9.335938 31.761719 C 9.371094 31.742188 9.410156 31.742188 9.449219 31.726562 L 14.003906 29.761719 L 11.527344 28.230469 Z M 8.789062 29.421875 "/>
<path style=" stroke:none;fill-rule:nonzero;fill:rgb(81.960785%,38.82353%,80.784315%);fill-opacity:1;" d="M 28.757812 15.210938 C 28.730469 14.714844 28.453125 14.269531 28.023438 14.019531 L 19.027344 8.445312 L 18.746094 8.558594 L 18.800781 11.261719 L 25.925781 15.683594 L 26.09375 22.902344 L 28.816406 24.582031 L 28.96875 24.527344 Z M 17.988281 27.890625 L 9.617188 22.710938 L 9.410156 14.019531 L 13.226562 12.375 L 13.152344 9.371094 L 7.238281 11.921875 C 6.804688 12.113281 6.539062 12.507812 6.558594 12.980469 L 6.804688 23.183594 C 6.804688 23.65625 7.085938 24.109375 7.539062 24.375 L 17.347656 30.460938 C 17.742188 30.703125 18.234375 30.78125 18.652344 30.648438 C 18.6875 30.625 18.726562 30.613281 18.765625 30.609375 L 24.546875 28.117188 L 21.671875 26.339844 Z M 17.988281 27.890625 "/>
<path style=" stroke:none;fill-rule:nonzero;fill:rgb(88.235295%,24.313726%,68.627453%);fill-opacity:1;" d="M 41.511719 8.070312 L 28.949219 0.285156 C 28.476562 0 27.925781 -0.0742188 27.457031 0.078125 C 27.417969 0.09375 27.359375 0.113281 27.324219 0.132812 L 15.058594 5.421875 C 14.570312 5.632812 14.265625 6.085938 14.285156 6.632812 L 14.589844 19.707031 C 14.605469 20.238281 14.929688 20.765625 15.4375 21.070312 L 28.003906 28.851562 C 28.449219 29.132812 28.992188 29.210938 29.496094 29.0625 C 29.535156 29.042969 29.589844 29.023438 29.628906 29.003906 L 41.890625 23.714844 C 42.378906 23.511719 42.6875 23.03125 42.664062 22.503906 L 42.363281 9.429688 C 42.34375 8.898438 42.023438 8.390625 41.511719 8.070312 M 28.738281 25.925781 L 17.820312 19.160156 L 17.554688 7.804688 L 28.210938 3.210938 L 39.132812 9.976562 L 39.398438 21.332031 Z M 28.738281 25.925781 "/>
</g>
</svg>

<svg role="img" viewBox="0 0 44 32" xmlns="http://www.w3.org/2000/svg"><path d="m13.398 19.613-.058-2.57-2.7-1.68.055 2.57Zm3.836 6.426-.058-2.516-2.36-1.472a.423.423 0 0 1-.097-.074l.058 2.53ZM8.79 29.422l-6.18-3.836-.152-6.426 3.023-1.305-.054-2.57-4.84 2.078c-.379.172-.606.512-.586.91l.191 7.707c0 .399.247.793.622 1.02l7.406 4.594c.34.207.758.265 1.117.168.035-.02.074-.02.113-.035l4.555-1.965-2.477-1.532Zm0 0" style="stroke:none;fill-rule:nonzero;fill:rgb(70.19608%,10.196079%,67.058825%);fill-opacity:1"/><path d="M28.758 15.21a1.473 1.473 0 0 0-.735-1.19l-8.996-5.575-.28.114.054 2.703 7.125 4.422.168 7.218 2.722 1.68.153-.055Zm-10.77 12.68-8.37-5.18-.208-8.69 3.817-1.645-.075-3.004-5.914 2.55c-.433.192-.699.587-.68 1.06l.247 10.203c0 .472.28.925.734 1.191l9.809 6.086c.394.242.886.32 1.304.187a.246.246 0 0 1 .114-.039l5.78-2.492-2.874-1.777Zm0 0" style="stroke:none;fill-rule:nonzero;fill:rgb(81.960785%,38.82353%,80.784315%);fill-opacity:1"/><path d="M41.512 8.07 28.949.285c-.472-.285-1.023-.36-1.492-.207-.039.016-.098.035-.133.055L15.06 5.422c-.489.21-.793.664-.774 1.21l.305 13.075c.015.531.34 1.059.848 1.363l12.566 7.782a1.83 1.83 0 0 0 1.492.21c.04-.019.094-.039.133-.058l12.262-5.29a1.25 1.25 0 0 0 .773-1.21l-.3-13.074c-.02-.532-.34-1.04-.852-1.36M28.738 25.926 17.82 19.16l-.265-11.355L28.21 3.21l10.922 6.766.265 11.355Zm0 0" style="stroke:none;fill-rule:nonzero;fill:rgb(88.235295%,24.313726%,68.627453%);fill-opacity:1"/></svg>
